X: 1
T: John O'Groat's House   [D]
R: reel
B: Fraser p.81 #195
Z: John Chambers <jc:trillian.mit.edu>
M: C|
L: 1/8
K: D
|: "D"Adde f2ed | "A7"cAed cdec | "D"Adde f2ed | Adcd "A7"ec"D"d2 :|
|| "D"agfa "G"gbag | "D"fdad "A7"cdeg | "D"agfa "G"gbag | "D"af"A7"ge cA"D"d2 |
|  "D"agfa "G"gbag | "D"fdad "A7"cdeg | "D"fdcd AdFd | AF"A7"GE CA,"D"D2 |][b2A,2]
